X:1
T:Title
%%score { ( 1 3 ) | ( 2 4 ) }
L:1/8
Q:1/4=100
M:4/4
K:Eb
V:1 treble nm="Grand Piano"
V:3 treble 
V:2 bass 
V:4 bass 
V:1
 [B,EG]2 [B,EG]2 [B,EG]>[B,DF] [B,E]>[B,DF] | [B,EG]2 [GB]2 [GB]4 | [Ge]2 B2 c>B A>G | %3
w: H.~N.~Lincoln * * * * *|||
 F2 F2 [B,DF]4 | [B,EG]2 [B,EG]2 [B,EG]>[B,DF] [B,E]>[B,DF] | [B,EG]2 [GB]2 [GB]4 | %6
w: |||
 [Ge]2 B2 c>B A>G |[M:7/8] [DF]2 B2 E3 |[M:1/4] G>A |[M:4/4] B6 z2 | [Ge]6 z2 | c6 z2 | [DB]6 B>A | %13
w: |||||||
 G6 z2 | [Ec]6 z2 | [GB]3 [EG] [DA]2 [DF]2 | E6 z2 |] %17
w: ||||
V:2
 E,2 E,2 E,>B,, G,,>B,, | E,2 [E,E]2 [E,E]4 | [E,B,]2 [G,E]2 [A,E]>[G,E] [F,B,D]>[E,B,E] | %3
 [D,B,]2 [C,=A,C]2 B,,4 | E,2 E,2 E,>B,, G,,>B,, | E,2 [E,E]2 [E,E]4 | %6
 [E,B,]2 [G,E]2 [A,E]>[G,E] [F,B,D]>[E,B,E] |[M:7/8] [B,,B,]2 [B,,A,B,]2 [E,G,B,]3 | %8
[M:1/4][K:treble] E>F |[M:4/4] G6[K:bass][K:treble] z2 | [E,E]>E, E,>E, E,2[K:treble] G>B | %11
 A6[K:bass] z2 | B,>B, B,>B, B,2 D>D | E6 z2 | [A,,A,]>A,, A,,>A,, A,,2 [A,,A,]>[A,,C] | %15
 [B,,B,]3 [B,,B,] [B,,B,]2 [B,,A,]2 | E,->[E,-G,] [E,-A,]>[E,-A,] [E,G,]2 z2 |] %17
V:3
 x8 | x8 | x8 | x8 | x8 | x8 | x8 |[M:7/8] x7 |[M:1/4] x2 |[M:4/4] z2 E>E E>B c>d | %10
 z z/ B,/ B,>B, B,2 e>d | z2 E>E E>e d>c | x8 | z2 B,>B, B,>E [EA]>[EB] | %14
 z z/ A,/ A,>A, A,2 [Ec]>[Ae] | x8 | z z/ B,/ C>C B,2 z2 |] %17
V:4
 x8 | x8 | x8 | x8 | x8 | x8 | x8 |[M:7/8] x7 |[M:1/4][K:treble] x2 | %9
[M:4/4] z2[K:bass] E,>E, E,>[K:treble][G,EG] [B,A]>[B,A] | x6[K:treble] x2 | %11
 z2 A,>A,[K:bass] A,>[A,CE] [F,B,F]>[F,=A,E] | x8 | z2 E,>E, E,>[E,B,] [C,A,]>[B,,G,] | x8 | x8 | %16
 G,2 z2 z4 |] %17

